X:267
T:For The Beauty Of The Earth
%%stretchlast false
M:4/4
L:1/4
K:F clef=C1
"^I"[F,A,CF] "^V7²"[G,B,CE]/ "^I"[F,A,CF]/ "^V¹"[E,G,CG] "^I"[F,A,CF] | "^IV¹"[D,F,B,B] "^V7¹"[E,G,CB] "^I"[F,CA]2 | "^IV"[B,,F,D] "^V7³"[B,,G,CE] "^I¹"[A,,F,CF] "^IV"[B,,F,B,D] | "^I²"[C,F,A,C] "^V"[C,E,G,C] "^I"[F,,F,A,C]2 | [F,A,CF] "^V7²"[G,B,CE]/ "^I"[F,A,CF]/ "^V¹"[E,G,CG] "^I"[F,A,CF] | "^IV¹"[D,F,B,B] "^V7¹"[E,G,CB] "^I"[F,CA]2 | "^IV"[B,,F,D] "^V7³"[B,,G,CE] "^I¹"[A,,F,CF] "^IV"[B,,F,B,D] | "^I²"[C,F,A,C] "^V"[C,E,G,C] "^I"[F,,F,A,C]2 | [F,CA] "^V¹"[E,CG]/ "^V7¹"[E,B,CG]/ "^I"[F,A,CF] [F,CA] | "^V¹"[E,G,Cc] "^V"[C,E,Cc]/ "^V7"[C,E,CB]/ "^I"[F,CA]2 | "^IV"[B,,F,D] "^V7³"[B,,G,CE] "^I¹"[A,,F,CF] "^IV¹"[D,F,B,B] | "^I²"[C,F,CA] "^V"[C,E,CG]/ "^V7"[C,E,B,G]/ "^I"[F,,F,A,F]2 |]
